X:21
T:Pour la foi que j'ai garde - C253
T:(Je marcherai en ta prsence)
C:J. Akepsimas
M:4/4
L:1/4
K:C
[P:Couplet]C/D/|E/E/ E/E/ E3/E/|F/F/ E/D/ Cz/E/|F/F/ E/D/ C2|[M:2/4]z/E/ E/F/|
[M:4/4]G/G/ G/G/ G3z/G/|A/A/ G/F/Ez/G/|A/A/ G/F/ E2|[M:2/4]z/G/ A/B/|
[M:4/4]c/c/ B/A/G3/E/|[M:2/4]F/F/ G/A/|[M:4/4]G2Gz/E/|[M:2/4]F/F/ G/A/|\
[M:4/4]G2HG[P:Refrain]!shortphrase!G|
|:cc B/B/A/G/|A2 GA/B/|1cG FE|D3 G:|2cG ED|C3|]
